X:1
T:Give Us A Drink Of Water
R:slip jig
M:9/8
L:1/8
K:G
D|:GBd gdc BAG|BcB cAG ~A2B|GBd gdc BAG|1 Bcd cAF GDB,:|2 Bcd cAF GBd|]
|:~g2g efg fed|~g2g efg ~a2a|1 ~g2g bag fed|efg agf ~g2d:|2 bag agf gfd|efg agf gdB|]